X: 20767
T: Johnny I Hardly Knew Ya
R: jig
M: 6/8
K: Aminor
E2A AAB|c2B c2A|G3 z2E|G3 z2E|
E2A AAB|c2B c2d|e3 z2c|e3 z2c|
e2e edc|d2d d2B|ccc cBA|BBB B2c/d/|
e3 d3|c3 B3|AAA A2G|(A3A2)z:|

